static/img/logo/jf_logo.svg

<svg viewBox="0 0 32 32" xmlns="http://www.w3.org/2000/svg"><path d="m0 0h32v32h-32z" fill="#052049"/><path d="m3.9020943 1.7108821v3.002764h11.1783177v15.8681539c0 4.631539-1.706689 6.688159-5.5276349 6.688159-2.0730829 0-4.2280757-1.199206-5.7320794-3.729357l-2.1137811 2.186085c1.8291498 3.216337 4.9599117 4.673776 7.9272204 4.673776 6.625682 0 8.82042-4.287289 8.82042-9.519219v-3.601652h10.072826v-3.046725h-10.072826v-9.4773493h11.861095v-3.0446356z" fill="#fff"/></svg>

<?xml version="1.0" encoding="UTF-8"?>
<svg viewBox="0 0 32 32" xmlns="http://www.w3.org/2000/svg">
<!-- UCSF blue -->
<rect fill="#052049" x="0" y="0" width="32" height="32"/>
<!-- derived from Source Sans Pro -->
<path style="fill: white" d="m 3.9020943,1.7108821 v 3.002764 H 15.080412 V 20.5818 c 0,4.631539 -1.706689,6.688159 -5.5276349,6.688159 -2.0730829,0 -4.2280757,-1.199206 -5.7320794,-3.729357 l -2.1137811,2.186085 c 1.8291498,3.216337 4.9599117,4.673776 7.9272204,4.673776 6.625682,0 8.82042,-4.287289 8.82042,-9.519219 V 17.279592 H 28.527383 V 14.232867 H 18.454557 V 4.7555177 H 30.315652 V 1.7108821 Z"/>
</svg>
